brandFactory_export/1.Light/Estomago _1Light.svg

<?xml version="1.0" encoding="UTF-8"?>
<svg width="24px" height="24px" viewBox="0 0 24 24" version="1.1" xmlns="http://www.w3.org/2000/svg" xmlns:xlink="http://www.w3.org/1999/xlink">
    <title>1.Light/Estomago _1Light</title>
    <g id="Symbols" stroke="none" stroke-width="1" fill="none" fill-rule="evenodd">
        <g id="1.Light/Estomago-_1Light" fill="#5CB615" fill-rule="nonzero">
            <path d="M6.17815126,16.4067227 C6.28571429,16.4067227 6.4,16.4201681 6.5210084,16.4470588 C7.14285714,16.5983193 7.83193277,17.1394958 7.58991597,18.8705882 C7.48235294,19.6302521 7.53613445,20.302521 7.74789916,20.8705882 C7.97310924,21.4789916 8.31260504,21.8890756 8.75630252,22.0840336 C11.3815126,23.2369748 14.9747899,22.4403361 18.1344538,20.010084 C20.4369748,18.2319328 21.9327731,15.8016807 22.3462185,13.1697479 C22.3529412,13.1193277 22.3697479,13.0722689 22.389916,13.0252101 C22.4638655,12.7226891 22.5142857,12.4537815 22.5478992,12.1848739 C23.0621849,8.27563025 20.1915966,7.36806723 18.9344538,7.15966387 C18.8168067,7.14957983 18.6386555,7.12268908 18.4806723,7.09915966 C18.2991597,7.0789916 17.8957983,7.04201681 17.4184874,7.08235294 C17.2773109,7.09579832 17.1294118,7.04201681 17.0252101,6.94117647 C16.6722689,6.59831933 16.3663866,6.19495798 16.1176471,5.73781513 C15.4655462,4.53445378 15.3176471,3.1394958 15.7008403,1.81512605 C15.707563,1.79831933 15.7142857,1.77815126 15.7210084,1.76134454 C15.7277311,1.74453782 15.7882353,1.5697479 15.7176471,1.41512605 C15.6436975,1.25378151 15.4352941,1.15630252 15.2705882,1.09915966 C14.487395,0.830252101 14.2789916,1.31428571 14.2453782,1.41512605 C13.7512605,3.10252101 13.9428571,4.90756303 14.789916,6.47394958 C14.9378151,6.74285714 15.102521,7.00168067 15.2806723,7.24705882 C15.4386555,7.46554622 15.4016807,7.76806723 15.1966387,7.94285714 C14.4268908,8.58487395 13.9428571,9.60336134 13.7613445,10.9613445 C13.7243697,11.2033613 13.7042017,11.4319328 13.7042017,11.6302521 C13.6470588,12.0033613 13.697479,12.3630252 13.7478992,12.712605 C13.8386555,13.3647059 13.9462185,14.1042017 13.4487395,14.6588235 C13.0218487,15.1394958 12.2521008,15.3445378 11.0352941,15.2907563 C10.9882353,15.287395 10.9378151,15.2806723 10.8941176,15.2638655 C10.7193277,15.2033613 10.5176471,15.1462185 10.2991597,15.0890756 C9.51932773,14.9142857 8.35630252,14.7529412 7.66722689,14.7798319 C7.64033613,14.7798319 7.61680672,14.7798319 7.58991597,14.7764706 L7.54621849,14.7764706 C6.51428571,14.7193277 5.46890756,14.9243697 4.50420168,15.3680672 C2.89411765,16.1142857 1.67058824,17.4453782 1.05546218,19.1193277 C0.991596639,19.2773109 0.917647059,19.6168067 1.37478992,19.8823529 C1.84201681,20.1512605 2.14117647,20.0605042 2.53109244,19.5260504 C2.65210084,19.3579832 2.77310924,19.1865546 2.8907563,19.0184874 C3.48235294,18.1680672 4.09411765,17.2907563 5.11260504,16.7697479 L5.23697479,16.702521 C5.4789916,16.5747899 5.78487395,16.4067227 6.17815126,16.4067227 M11.3613445,23.6235294 C10.2890756,23.6235294 9.27394958,23.4285714 8.35294118,23.0252101 C7.64705882,22.712605 7.12605042,22.1109244 6.8,21.2336134 C6.53109244,20.5042017 6.45714286,19.6638655 6.58823529,18.7327731 C6.69915966,17.9529412 6.59495798,17.5226891 6.28571429,17.4453782 C6.11092437,17.4016807 5.97310924,17.4722689 5.72773109,17.6033613 L5.57983193,17.6840336 C4.78655462,18.0907563 4.27226891,18.8302521 3.72773109,19.610084 C3.60672269,19.7848739 3.48571429,19.9596639 3.35798319,20.1344538 C2.48067227,21.3445378 1.52605042,21.1495798 0.880672269,20.7731092 C-0.161344538,20.1680672 -0.0672268908,19.1764706 0.131092437,18.7394958 C0.826890756,16.8436975 2.23865546,15.307563 4.09411765,14.4470588 C5.20672269,13.9361345 6.42016807,13.7008403 7.61008403,13.7647059 C7.62016807,13.7647059 7.63361345,13.7647059 7.64369748,13.7680672 C8.44033613,13.7310924 9.71428571,13.9159664 10.5512605,14.1042017 C10.7798319,14.1647059 10.9781513,14.2218487 11.1596639,14.2789916 C12.2621849,14.3159664 12.6016807,14.107563 12.712605,13.9831933 C12.8941176,13.7815126 12.8302521,13.3378151 12.7630252,12.8638655 C12.7058824,12.4537815 12.6386555,11.9932773 12.7159664,11.5495798 C12.7092437,11.3915966 12.7327731,11.1092437 12.7764706,10.8235294 C12.9647059,9.40840336 13.4521008,8.28571429 14.2218487,7.48235294 C14.1142857,7.31764706 14.0134454,7.14957983 13.9159664,6.97478992 C12.9378151,5.16638655 12.7159664,3.08235294 13.2941176,1.1092437 C13.5193277,0.460504202 14.3092437,-0.302521008 15.610084,0.141176471 C16.2554622,0.36302521 16.5378151,0.739495798 16.6588235,1.01848739 C16.8773109,1.51596639 16.7327731,1.98655462 16.6789916,2.13445378 C16.3798319,3.19327731 16.5008403,4.30252101 17.0184874,5.2605042 C17.1798319,5.55294118 17.3714286,5.82521008 17.5865546,6.0605042 C18.0168067,6.04033613 18.3831933,6.07058824 18.6285714,6.10084034 C18.7865546,6.12436975 18.9411765,6.1512605 19.0722689,6.16134454 C21.5966387,6.57815126 24.0773109,8.41344538 23.5630252,12.3327731 C23.5159664,12.6890756 23.4453782,13.0453782 23.3546218,13.3815126 C23.3512605,13.394958 23.3478992,13.405042 23.3445378,13.4184874 C22.8739496,16.2789916 21.2470588,18.9109244 18.7596639,20.8369748 C16.3697479,22.6554622 13.7378151,23.6235294 11.3613445,23.6235294" id="Estomago-_1Light"></path>
        </g>
    </g>
</svg>

<svg width="24" height="24" viewBox="0 0 24 24" xmlns="http://www.w3.org/2000/svg"><path d="M6.178 16.407c.108 0 .222.013.343.04.622.151 1.31.692 1.069 2.424-.108.76-.054 1.432.158 2 .225.608.565 1.018 1.008 1.213 2.626 1.153 6.219.356 9.378-2.074 2.303-1.778 3.799-4.208 4.212-6.84a.552.552 0 01.044-.145c.074-.302.124-.571.158-.84.514-3.91-2.356-4.817-3.614-5.025-.117-.01-.295-.037-.453-.06a5.535 5.535 0 00-1.063-.018.507.507 0 01-.393-.14 5.01 5.01 0 01-.907-1.204 5.172 5.172 0 01-.417-3.923l.02-.054a.496.496 0 00-.003-.346c-.074-.161-.283-.259-.447-.316-.784-.269-.992.215-1.026.316a6.662 6.662 0 001.036 5.832.516.516 0 01-.084.696c-.77.642-1.254 1.66-1.436 3.018a4.53 4.53 0 00-.057.67c-.057.372-.007.732.044 1.082.09.652.198 1.391-.3 1.946-.426.48-1.196.686-2.413.632a.5.5 0 01-.14-.027 8.23 8.23 0 00-.596-.175c-.78-.175-1.943-.336-2.632-.31-.027 0-.05 0-.077-.003h-.044a6.44 6.44 0 00-3.042.592 6.618 6.618 0 00-3.449 3.751c-.063.158-.137.498.32.763.467.27.766.179 1.156-.356.121-.168.242-.34.36-.508.591-.85 1.203-1.727 2.222-2.248l.124-.067c.242-.128.548-.296.941-.296m5.183 7.217c-1.072 0-2.087-.195-3.008-.599-.706-.312-1.227-.914-1.553-1.791-.269-.73-.343-1.57-.212-2.501.111-.78.007-1.21-.302-1.288-.175-.043-.313.027-.558.158l-.148.081c-.793.407-1.308 1.146-1.852 1.926-.121.175-.242.35-.37.524-.877 1.21-1.832 1.016-2.477.64-1.042-.606-.948-1.598-.75-2.035a7.61 7.61 0 013.963-4.292 7.493 7.493 0 013.55-.679c.796-.037 2.07.148 2.907.336.229.06.427.118.609.175 1.102.037 1.442-.171 1.553-.296.181-.201.117-.645.05-1.12-.057-.41-.124-.87-.047-1.313a4.39 4.39 0 01.06-.726c.189-1.416.676-2.538 1.446-3.342a8.46 8.46 0 01-.306-.507 7.704 7.704 0 01-.622-5.866C13.52.461 14.31-.303 15.61.141c.645.222.928.598 1.049.877.218.498.074.969.02 1.116a4.16 4.16 0 00.34 3.127c.16.292.352.564.568.8.43-.02.796.01 1.042.04.158.023.312.05.443.06 2.525.417 5.005 2.252 4.491 6.172a8.153 8.153 0 01-.208 1.049l-.01.036c-.471 2.861-2.098 5.493-4.585 7.419-2.39 1.818-5.022 2.787-7.399 2.787" fill="#5CB615" fill-rule="nonzero"/></svg>
